; generated by Slic3r 1.2.9 on 2017-04-03 at 10:14:51

; external perimeters extrusion width = 0.50mm
; perimeters extrusion width = 0.52mm
; infill extrusion width = 0.52mm
; solid infill extrusion width = 0.52mm
; top infill extrusion width = 0.52mm

M107 ; disable fan
M104 S200 ; set temperature
G28 ; home all axes
G1 Z5 F5000 ; lift nozzle

M109 S200 ; wait for temperature to be reached
G21 ; set units to millimeters
G90 ; use absolute coordinates
M82 ; use absolute distances for extrusion
G92 E0 ; reset extrusion distance
G1 Z0.350 F7800.000 ; move to next layer (0)
G1 E-2.00000 F2400.00000 ; retract
G92 E0 ; reset extrusion distance
G1 X90.250 Y90.250 F7800.000 ; move to first perimeter point
G1 E2.00000 F2400.00000 ; unretract
G1 X109.750 Y90.250 E2.14769 F1800.000 ; perimeter
G1 X109.750 Y109.750 E2.29538 ; perimeter
G1 X90.250 Y109.750 E2.44307 ; perimeter
G1 X90.250 Y90.325 E2.59019 ; perimeter
G1 X90.698 Y90.862 F7800.000 ; move to first infill point
G1 X90.859 Y90.698 E2.59249 F1800.000 ; infill
G1 X91.672 Y90.698 F7800.000 ; move to first infill point
G1 X91.348 Y91.001 E2.59693 F1800.000 ; infill
G1 X90.698 Y91.688 E2.60639 ; infill
G1 X90.698 Y92.565 F7800.000 ; move to first infill point
G1 X91.219 Y91.942 E2.61451 F1800.000 ; infill
G1 X91.605 Y91.535 E2.62012 ; infill
G1 X92.010 Y91.147 E2.62573 ; infill
G1 X92.533 Y90.698 E2.63262 ; infill
G1 X93.453 Y90.698 F7800.000 ; move to first infill point
G1 X92.991 Y91.046 E2.63841 F1800.000 ; infill
G1 X92.560 Y91.406 E2.64402 ; infill
G1 X92.148 Y91.787 E2.64963 ; infill
G1 X91.756 Y92.188 E2.65524 ; infill
G1 X91.383 Y92.607 E2.66085 ; infill
G1 X91.032 Y93.045 E2.66646 ; infill
G1 X90.698 Y93.507 E2.67216 ; infill
G1 X90.698 Y94.567 F7800.000 ; move to first infill point
G1 X91.134 Y93.863 E2.68044 F1800.000 ; infill
G1 X91.461 Y93.407 E2.68605 ; infill
G1 X91.812 Y92.969 E2.69166 ; infill
G1 X92.185 Y92.550 E2.69727 ; infill
G1 X92.579 Y92.151 E2.70288 ; infill
G1 X92.993 Y91.773 E2.70849 ; infill
G1 X93.427 Y91.417 E2.71410 ; infill
G1 X93.878 Y91.084 E2.71971 ; infill
G1 X94.476 Y90.698 E2.72682 ; infill
G1 X95.650 Y90.698 F7800.000 ; move to first infill point
G1 X95.140 Y90.959 E2.73255 F1800.000 ; infill
G1 X94.656 Y91.242 E2.73816 ; infill
G1 X94.188 Y91.551 E2.74377 ; infill
G1 X93.738 Y91.886 E2.74938 ; infill
G1 X93.306 Y92.244 E2.75499 ; infill
G1 X92.895 Y92.626 E2.76060 ; infill
G1 X92.505 Y93.030 E2.76621 ; infill
G1 X92.138 Y93.454 E2.77182 ; infill
G1 X91.795 Y93.898 E2.77743 ; infill
G1 X91.477 Y94.360 E2.78304 ; infill
G1 X91.185 Y94.838 E2.78865 ; infill
G1 X90.919 Y95.332 E2.79426 ; infill
G1 X90.698 Y95.803 E2.79946 ; infill
G1 X90.698 Y97.514 F7800.000 ; move to first infill point
G1 X90.831 Y97.041 E2.80437 F1800.000 ; infill
G1 X91.014 Y96.511 E2.80998 ; infill
G1 X91.227 Y95.992 E2.81559 ; infill
G1 X91.470 Y95.486 E2.82120 ; infill
G1 X91.742 Y94.996 E2.82681 ; infill
G1 X92.042 Y94.522 E2.83242 ; infill
G1 X92.370 Y94.066 E2.83803 ; infill
G1 X92.723 Y93.630 E2.84364 ; infill
G1 X93.101 Y93.215 E2.84925 ; infill
G1 X93.502 Y92.823 E2.85486 ; infill
G1 X93.925 Y92.455 E2.86047 ; infill
G1 X94.369 Y92.112 E2.86608 ; infill
G1 X94.832 Y91.795 E2.87169 ; infill
G1 X95.312 Y91.505 E2.87730 ; infill
G1 X95.809 Y91.244 E2.88291 ; infill
G1 X96.319 Y91.012 E2.88852 ; infill
G1 X96.843 Y90.809 E2.89413 ; infill
G1 X97.189 Y90.698 E2.89777 ; infill
G1 X102.997 Y90.698 F7800.000 ; move to first infill point
G1 X103.442 Y90.846 E2.90247 F1800.000 ; infill
G1 X103.963 Y91.054 E2.90808 ; infill
G1 X104.472 Y91.291 E2.91369 ; infill
G1 X104.966 Y91.557 E2.91930 ; infill
G1 X105.444 Y91.851 E2.92491 ; infill
G1 X105.904 Y92.172 E2.93052 ; infill
G1 X106.345 Y92.518 E2.93613 ; infill
G1 X106.766 Y92.889 E2.94174 ; infill
G1 X107.165 Y93.284 E2.94735 ; infill
G1 X107.540 Y93.701 E2.95296 ; infill
G1 X107.892 Y94.138 E2.95857 ; infill
G1 X108.217 Y94.595 E2.96418 ; infill
G1 X108.516 Y95.069 E2.96979 ; infill
G1 X108.788 Y95.560 E2.97540 ; infill
G1 X109.031 Y96.066 E2.98101 ; infill
G1 X109.302 Y96.748 E2.98835 ; infill
G1 X109.302 Y95.342 F7800.000 ; move to first infill point
G1 X108.901 Y94.621 E2.99659 F1800.000 ; infill
G1 X108.594 Y94.152 E3.00220 ; infill
G1 X108.262 Y93.699 E3.00781 ; infill
G1 X107.906 Y93.266 E3.01342 ; infill
G1 X107.528 Y92.852 E3.01903 ; infill
G1 X107.127 Y92.459 E3.02464 ; infill
G1 X106.706 Y92.088 E3.03025 ; infill
G1 X106.265 Y91.741 E3.03586 ; infill
G1 X105.806 Y91.418 E3.04147 ; infill
G1 X105.331 Y91.121 E3.04708 ; infill
G1 X104.527 Y90.698 E3.05616 ; infill
G1 X105.711 Y90.698 F7800.000 ; move to first infill point
G1 X106.498 Y91.216 E3.06559 F1800.000 ; infill
G1 X106.943 Y91.558 E3.07120 ; infill
G1 X107.370 Y91.922 E3.07681 ; infill
G1 X107.778 Y92.307 E3.08242 ; infill
G1 X108.166 Y92.713 E3.08803 ; infill
G1 X108.532 Y93.138 E3.09364 ; infill
G1 X108.876 Y93.581 E3.09925 ; infill
G1 X109.302 Y94.211 E3.10685 ; infill
G1 X109.302 Y93.218 F7800.000 ; move to first infill point
G1 X108.692 Y92.460 E3.11659 F1800.000 ; infill
G1 X108.311 Y92.048 E3.12220 ; infill
G1 X107.910 Y91.655 E3.12781 ; infill
G1 X107.491 Y91.283 E3.13342 ; infill
G1 X106.734 Y90.698 E3.14299 ; infill
G1 X107.659 Y90.698 F7800.000 ; move to first infill point
G1 X108.333 Y91.282 E3.15190 F1800.000 ; infill
G1 X108.732 Y91.676 E3.15751 ; infill
G1 X109.302 Y92.314 E3.16607 ; infill
G1 X109.302 Y91.466 F7800.000 ; move to first infill point
G1 X109.042 Y91.191 E3.16986 F1800.000 ; infill
G1 X108.523 Y90.698 E3.17701 ; infill
G1 X109.302 Y99.460 F7800.000 ; move to first infill point
G1 X109.273 Y99.083 E3.18080 F1800.000 ; infill
G1 X109.195 Y98.527 E3.18641 ; infill
G1 X109.085 Y97.977 E3.19202 ; infill
G1 X108.941 Y97.435 E3.19763 ; infill
G1 X108.765 Y96.902 E3.20324 ; infill
G1 X108.557 Y96.381 E3.20885 ; infill
G1 X108.318 Y95.874 E3.21446 ; infill
G1 X108.049 Y95.381 E3.22007 ; infill
G1 X107.751 Y94.906 E3.22568 ; infill
G1 X107.424 Y94.450 E3.23129 ; infill
G1 X107.071 Y94.015 E3.23690 ; infill
G1 X106.691 Y93.601 E3.24251 ; infill
G1 X106.288 Y93.212 E3.24812 ; infill
G1 X105.861 Y92.847 E3.25373 ; infill
G1 X105.414 Y92.509 E3.25934 ; infill
G1 X104.946 Y92.199 E3.26495 ; infill
G1 X104.461 Y91.918 E3.27056 ; infill
G1 X103.959 Y91.667 E3.27617 ; infill
G1 X103.443 Y91.446 E3.28178 ; infill
G1 X102.915 Y91.258 E3.28739 ; infill
G1 X102.376 Y91.102 E3.29300 ; infill
G1 X101.828 Y90.979 E3.29861 ; infill
G1 X101.275 Y90.890 E3.30422 ; infill
G1 X100.716 Y90.835 E3.30983 ; infill
G1 X100.156 Y90.813 E3.31544 ; infill
G1 X99.595 Y90.827 E3.32105 ; infill
G1 X99.036 Y90.874 E3.32666 ; infill
G1 X98.481 Y90.955 E3.33227 ; infill
G1 X97.932 Y91.070 E3.33788 ; infill
G1 X97.391 Y91.219 E3.34349 ; infill
G1 X96.860 Y91.400 E3.34910 ; infill
G1 X96.341 Y91.614 E3.35471 ; infill
G1 X95.836 Y91.859 E3.36032 ; infill
G1 X95.348 Y92.134 E3.36593 ; infill
G1 X94.877 Y92.439 E3.37154 ; infill
G1 X94.425 Y92.772 E3.37715 ; infill
G1 X93.995 Y93.133 E3.38276 ; infill
G1 X93.588 Y93.519 E3.38837 ; infill
G1 X93.206 Y93.929 E3.39398 ; infill
G1 X92.849 Y94.362 E3.39959 ; infill
G1 X92.520 Y94.817 E3.40520 ; infill
G1 X92.220 Y95.290 E3.41081 ; infill
G1 X91.949 Y95.782 E3.41642 ; infill
G1 X91.709 Y96.289 E3.42203 ; infill
G1 X91.501 Y96.810 E3.42764 ; infill
G1 X91.325 Y97.342 E3.43325 ; infill
G1 X91.183 Y97.885 E3.43886 ; infill
G1 X91.074 Y98.436 E3.44447 ; infill
G1 X91.000 Y98.992 E3.45008 ; infill
G1 X90.961 Y99.551 E3.45569 ; infill
G1 X90.956 Y100.112 E3.46130 ; infill
G1 X90.986 Y100.672 E3.46691 ; infill
G1 X91.050 Y101.230 E3.47252 ; infill
G1 X91.149 Y101.782 E3.47813 ; infill
G1 X91.282 Y102.327 E3.48374 ; infill
G1 X91.449 Y102.862 E3.48935 ; infill
G1 X91.649 Y103.387 E3.49496 ; infill
G1 X91.881 Y103.897 E3.50057 ; infill
G1 X92.144 Y104.393 E3.50618 ; infill
G1 X92.438 Y104.871 E3.51179 ; infill
G1 X92.761 Y105.330 E3.51740 ; infill
G1 X93.112 Y105.767 E3.52301 ; infill
G1 X93.489 Y106.182 E3.52862 ; infill
G1 X93.892 Y106.573 E3.53423 ; infill
G1 X94.318 Y106.937 E3.53984 ; infill
G1 X94.767 Y107.275 E3.54545 ; infill
G1 X95.235 Y107.583 E3.55106 ; infill
G1 X95.722 Y107.862 E3.55667 ; infill
G1 X96.225 Y108.109 E3.56228 ; infill
G1 X96.743 Y108.325 E3.56789 ; infill
G1 X97.274 Y108.507 E3.57350 ; infill
G1 X97.815 Y108.656 E3.57911 ; infill
G1 X98.364 Y108.771 E3.58472 ; infill
G1 X98.919 Y108.851 E3.59033 ; infill
G1 X99.478 Y108.896 E3.59594 ; infill
G1 X100.039 Y108.905 E3.60155 ; infill
G1 X100.600 Y108.880 E3.60716 ; infill
G1 X101.157 Y108.819 E3.61277 ; infill
G1 X101.710 Y108.723 E3.61838 ; infill
G1 X102.256 Y108.592 E3.62399 ; infill
G1 X102.792 Y108.427 E3.62960 ; infill
G1 X103.317 Y108.228 E3.63521 ; infill
G1 X103.828 Y107.997 E3.64082 ; infill
G1 X104.323 Y107.734 E3.64643 ; infill
G1 X104.801 Y107.440 E3.65204 ; infill
G1 X105.259 Y107.117 E3.65765 ; infill
G1 X105.696 Y106.765 E3.66326 ; infill
G1 X106.110 Y106.386 E3.66887 ; infill
G1 X106.499 Y105.981 E3.67448 ; infill
G1 X106.861 Y105.553 E3.68009 ; infill
G1 X107.195 Y105.102 E3.68570 ; infill
G1 X107.500 Y104.632 E3.69131 ; infill
G1 X107.775 Y104.142 E3.69692 ; infill
G1 X108.017 Y103.637 E3.70253 ; infill
G1 X108.228 Y103.116 E3.70814 ; infill
G1 X108.404 Y102.584 E3.71375 ; infill
G1 X108.546 Y102.041 E3.71936 ; infill
G1 X108.653 Y101.490 E3.72497 ; infill
G1 X108.725 Y100.934 E3.73058 ; infill
G1 X108.761 Y100.374 E3.73619 ; infill
G1 X108.762 Y99.813 E3.74180 ; infill
G1 X108.726 Y99.253 E3.74741 ; infill
G1 X108.655 Y98.697 E3.75302 ; infill
G1 X108.548 Y98.146 E3.75863 ; infill
G1 X108.406 Y97.603 E3.76424 ; infill
G1 X108.229 Y97.071 E3.76985 ; infill
G1 X108.019 Y96.551 E3.77546 ; infill
G1 X107.776 Y96.045 E3.78107 ; infill
G1 X107.500 Y95.557 E3.78668 ; infill
G1 X107.194 Y95.086 E3.79229 ; infill
G1 X106.859 Y94.637 E3.79790 ; infill
G1 X106.495 Y94.210 E3.80351 ; infill
G1 X106.104 Y93.808 E3.80912 ; infill
G1 X105.688 Y93.431 E3.81473 ; infill
G1 X105.248 Y93.082 E3.82034 ; infill
G1 X104.788 Y92.763 E3.82595 ; infill
G1 X104.307 Y92.473 E3.83156 ; infill
G1 X103.809 Y92.216 E3.83717 ; infill
G1 X103.295 Y91.991 E3.84278 ; infill
G1 X102.767 Y91.800 E3.84839 ; infill
G1 X102.228 Y91.643 E3.85400 ; infill
G1 X101.681 Y91.522 E3.85961 ; infill
G1 X101.126 Y91.437 E3.86522 ; infill
G1 X100.567 Y91.387 E3.87083 ; infill
G1 X100.006 Y91.375 E3.87644 ; infill
G1 X99.446 Y91.398 E3.88205 ; infill
G1 X98.888 Y91.458 E3.88766 ; infill
G1 X98.335 Y91.554 E3.89327 ; infill
G1 X97.790 Y91.687 E3.89888 ; infill
G1 X97.255 Y91.854 E3.90449 ; infill
G1 X96.731 Y92.056 E3.91010 ; infill
G1 X96.222 Y92.291 E3.91571 ; infill
G1 X95.730 Y92.560 E3.92132 ; infill
G1 X95.255 Y92.860 E3.92693 ; infill
G1 X94.802 Y93.190 E3.93254 ; infill
G1 X94.371 Y93.549 E3.93815 ; infill
G1 X93.965 Y93.936 E3.94376 ; infill
G1 X93.585 Y94.349 E3.94937 ; infill
G1 X93.232 Y94.785 E3.95498 ; infill
G1 X92.910 Y95.244 E3.96059 ; infill
G1 X92.618 Y95.723 E3.96620 ; infill
G1 X92.358 Y96.220 E3.97181 ; infill
G1 X92.131 Y96.733 E3.97742 ; infill
G1 X91.939 Y97.260 E3.98303 ; infill
G1 X91.781 Y97.799 E3.98864 ; infill
G1 X91.660 Y98.346 E3.99425 ; infill
G1 X91.575 Y98.901 E3.99986 ; infill
G1 X91.526 Y99.460 E4.00547 ; infill
G1 X91.515 Y100.021 E4.01108 ; infill
G1 X91.541 Y100.581 E4.01669 ; infill
G1 X91.604 Y101.139 E4.02230 ; infill
G1 X91.703 Y101.691 E4.02791 ; infill
G1 X91.839 Y102.235 E4.03352 ; infill
G1 X92.011 Y102.769 E4.03913 ; infill
G1 X92.218 Y103.291 E4.04474 ; infill
G1 X92.459 Y103.797 E4.05035 ; infill
G1 X92.733 Y104.287 E4.05596 ; infill
G1 X93.038 Y104.757 E4.06157 ; infill
G1 X93.375 Y105.206 E4.06718 ; infill
G1 X93.741 Y105.631 E4.07279 ; infill
G1 X94.134 Y106.031 E4.07840 ; infill
G1 X94.553 Y106.405 E4.08401 ; infill
G1 X94.996 Y106.749 E4.08962 ; infill
G1 X95.461 Y107.063 E4.09523 ; infill
G1 X95.945 Y107.345 E4.10084 ; infill
G1 X96.448 Y107.594 E4.10645 ; infill
G1 X96.966 Y107.809 E4.11206 ; infill
G1 X97.498 Y107.989 E4.11767 ; infill
G1 X98.040 Y108.133 E4.12328 ; infill
G1 X98.590 Y108.240 E4.12889 ; infill
G1 X99.147 Y108.310 E4.13450 ; infill
G1 X99.707 Y108.343 E4.14011 ; infill
G1 X100.268 Y108.338 E4.14572 ; infill
G1 X100.827 Y108.295 E4.15133 ; infill
G1 X101.383 Y108.214 E4.15694 ; infill
G1 X101.931 Y108.097 E4.16255 ; infill
G1 X102.471 Y107.943 E4.16816 ; infill
G1 X102.998 Y107.752 E4.17377 ; infill
G1 X103.512 Y107.527 E4.17938 ; infill
G1 X104.009 Y107.267 E4.18499 ; infill
G1 X104.488 Y106.975 E4.19060 ; infill
G1 X104.946 Y106.650 E4.19621 ; infill
G1 X105.380 Y106.296 E4.20182 ; infill
G1 X105.790 Y105.913 E4.20743 ; infill
G1 X106.173 Y105.503 E4.21304 ; infill
G1 X106.527 Y105.068 E4.21865 ; infill
G1 X106.851 Y104.609 E4.22426 ; infill
G1 X107.143 Y104.130 E4.22987 ; infill
G1 X107.402 Y103.633 E4.23548 ; infill
G1 X107.626 Y103.119 E4.24109 ; infill
G1 X107.815 Y102.590 E4.24670 ; infill
G1 X107.968 Y102.050 E4.25231 ; infill
G1 X108.083 Y101.501 E4.25792 ; infill
G1 X108.160 Y100.946 E4.26353 ; infill
G1 X108.200 Y100.386 E4.26914 ; infill
G1 X108.201 Y99.825 E4.27475 ; infill
G1 X108.164 Y99.265 E4.28036 ; infill
G1 X108.088 Y98.709 E4.28597 ; infill
G1 X107.975 Y98.160 E4.29158 ; infill
G1 X107.824 Y97.620 E4.29719 ; infill
G1 X107.637 Y97.091 E4.30280 ; infill
G1 X107.414 Y96.576 E4.30841 ; infill
G1 X107.155 Y96.078 E4.31402 ; infill
G1 X106.864 Y95.599 E4.31963 ; infill
G1 X106.540 Y95.141 E4.32524 ; infill
G1 X106.185 Y94.706 E4.33085 ; infill
G1 X105.801 Y94.297 E4.33646 ; infill
G1 X105.390 Y93.915 E4.34207 ; infill
G1 X104.954 Y93.563 E4.34768 ; infill
G1 X104.494 Y93.241 E4.35329 ; infill
G1 X104.013 Y92.952 E4.35890 ; infill
G1 X103.514 Y92.697 E4.36451 ; infill
G1 X102.998 Y92.477 E4.37012 ; infill
G1 X102.468 Y92.293 E4.37573 ; infill
G1 X101.926 Y92.147 E4.38134 ; infill
G1 X101.376 Y92.038 E4.38695 ; infill
G1 X100.819 Y91.968 E4.39256 ; infill
G1 X100.259 Y91.937 E4.39817 ; infill
G1 X99.698 Y91.945 E4.40378 ; infill
G1 X99.139 Y91.991 E4.40939 ; infill
G1 X98.585 Y92.077 E4.41500 ; infill
G1 X98.037 Y92.201 E4.42061 ; infill
G1 X97.500 Y92.363 E4.42622 ; infill
G1 X96.976 Y92.561 E4.43183 ; infill
G1 X96.466 Y92.796 E4.43744 ; infill
G1 X95.975 Y93.066 E4.44305 ; infill
G1 X95.503 Y93.370 E4.44866 ; infill
G1 X95.054 Y93.706 E4.45427 ; infill
G1 X94.629 Y94.073 E4.45988 ; infill
G1 X94.231 Y94.468 E4.46549 ; infill
G1 X93.862 Y94.891 E4.47110 ; infill
G1 X93.524 Y95.338 E4.47671 ; infill
G1 X93.217 Y95.808 E4.48232 ; infill
G1 X92.945 Y96.299 E4.48793 ; infill
G1 X92.707 Y96.807 E4.49354 ; infill
G1 X92.507 Y97.331 E4.49915 ; infill
G1 X92.343 Y97.867 E4.50476 ; infill
G1 X92.218 Y98.414 E4.51037 ; infill
G1 X92.132 Y98.969 E4.51598 ; infill
G1 X92.085 Y99.528 E4.52159 ; infill
G1 X92.077 Y100.088 E4.52720 ; infill
G1 X92.110 Y100.649 E4.53281 ; infill
G1 X92.182 Y101.205 E4.53842 ; infill
G1 X92.293 Y101.755 E4.54403 ; infill
G1 X92.443 Y102.295 E4.54964 ; infill
G1 X92.631 Y102.824 E4.55525 ; infill
G1 X92.856 Y103.338 E4.56086 ; infill
G1 X93.117 Y103.834 E4.56647 ; infill
G1 X93.413 Y104.311 E4.57208 ; infill
G1 X93.742 Y104.766 E4.57769 ; infill
G1 X94.102 Y105.195 E4.58330 ; infill
G1 X94.493 Y105.598 E4.58891 ; infill
G1 X94.911 Y105.973 E4.59452 ; infill
G1 X95.354 Y106.316 E4.60013 ; infill
G1 X95.821 Y106.627 E4.60574 ; infill
G1 X96.309 Y106.903 E4.61135 ; infill
G1 X96.816 Y107.144 E4.61696 ; infill
G1 X97.339 Y107.348 E4.62257 ; infill
G1 X97.875 Y107.514 E4.62818 ; infill
G1 X98.421 Y107.641 E4.63379 ; infill
G1 X98.975 Y107.728 E4.63940 ; infill
G1 X99.534 Y107.775 E4.64501 ; infill
G1 X100.095 Y107.782 E4.65062 ; infill
G1 X100.655 Y107.749 E4.65623 ; infill
G1 X101.211 Y107.675 E4.66184 ; infill
G1 X101.761 Y107.561 E4.66745 ; infill
G1 X102.300 Y107.408 E4.67306 ; infill
G1 X102.828 Y107.216 E4.67867 ; infill
G1 X103.340 Y106.987 E4.68428 ; infill
G1 X103.834 Y106.721 E4.68989 ; infill
G1 X104.307 Y106.420 E4.69550 ; infill
G1 X104.758 Y106.086 E4.70111 ; infill
G1 X105.182 Y105.719 E4.70672 ; infill
G1 X105.580 Y105.323 E4.71233 ; infill
